X:1
T:Blessèd Redeemer
T:Blessèd Redeemer
T:Ira David Sankey
T:Frances Jane (Fanny) Crosby, 1898
T:Public Domain Courtesy of the Cyber Hymnal™
T:Public Domain Courtesy of the Cyber Hymnal™
C:Ira David Sankey
Z:Public Domain
Z:Courtesy of the Cyber Hymnal™
%%score ( 1 2 ) ( 3 4 )
L:1/8
M:9/8
K:D
V:1 treble 
V:2 treble 
V:3 bass 
V:4 bass 
V:1
 [FA][^E^G][FA] | [DF]3 [FA]3 [Fd][Ac][GB] | [FA]3 [DF]3 [EG][^DF][EG] | [CE]3 [EG]3 [GB][FA][EG] | %4
w: 1.~Bless- èd Re-|deem- er, full of com-|pas- sion, Great is Thy|mer- cy, bound- less and|
w: 2.~Bless- èd Re-|deem- er, Thou art my|ref- uge, Un- der Thy|watch- care, safe I shall|
w: 3.~Bless- èd Re-|deem- er, gra- cious and|ten- der, Now and for-|ev- er dwell Thou in|
 [DF]6 [FA][^E^G][FA] | [DF]3 [FA]3 [Fd][Gc][Ad] | [Ge]3 [GB]3 [Ed][Ec][^EB] | %7
w: free; Now in my|weak- ness, seek- ing Thy|fa- vor, Lord, I am|
w: be; Glad- ly a-|dor- ing, joy- ful- ly|trust- ing, Still I am|
w: me; Thou, my pro-|tect- or, shield and de-|fend- er, Draw me and|
 [FA]3 [Fd]3 [DF][EG][CE] | D6 ||"^Refrain" [EG][^DF][EG] | [CE]3 [EG]3 [GB][FA][EG] | %11
w: com- ing clos- er to|Thee.|||
w: com- ing clos- er to|Thee.|Bless- èd Re-|deem- er, won- der- ful|
w: keep me clos- er to|Thee.|||
 [DF]3 [FA]3 [FA][^E^G][FA] | [GB]3 [Ad]3 [Ac][Bd][^GB] | A3- [GA]3 [FA][^E^G][FA] | %14
w: |||
w: Sav- ior, Fount- ain of|wis- dom, An- cient of|Days, Hope of the faith-|
w: |||
 [DF]3 [FA]3 [Fd][Gc][Ad] | [Ge]3 [GB]3 [Ed][Ec][^EB] | [FA]3 [Fd]3 [DF][EG][CE] | D8 |] %18
w: ||||
w: ful, light of all ag-|es, Je- sus my Sav-|ior, Thee will I praise.||
w: ||||
V:2
 x3 | x9 | x9 | x9 | x9 | x9 | x9 | x9 | D6 || x3 | x9 | x9 | x9 | x9 | x9 | x9 | x9 | D8 |] %18
V:3
 [D,D][D,B,][D,D] | [D,A,]3 [D,D]3 [D,A,][D,B,][D,C] | [D,D]3 [D,A,]3 [A,,A,][A,,A,][A,,A,] | %3
 [A,,A,]3 [A,,C]3 [A,,C][A,,C][C,A,] | [D,A,]6 [D,D][D,C][D,D] | %5
 [D,A,]3 [D,D]3 [D,A,][E,A,][F,A,] | [G,B,]3 [G,D]3 [G,B,][G,C][^G,D] | %7
 [A,D]3 A,3 [A,,A,][A,,A,][A,,A,] | [D,F,]6 || [A,,A,][A,,A,][A,,A,] | %10
 [A,,A,]3 [A,,A,]3 [A,,C][A,,C][C,A,] | [D,A,]3 [D,D]3 [D,D][D,B,][D,D] | %12
 [G,D]3 [F,D]3 [E,E][E,E][E,D] | [A,,C]6 [D,D][D,B,][D,D] | [D,A,]3 [D,D]3 [D,A,][E,A,][F,A,] | %15
 [G,B,]3 [G,D]3 [G,B,][G,C][^G,D] | [A,D]3 A,3 [A,,A,][A,,A,][A,,G,] | [D,F,]8 |] %18
V:4
 x3 | x9 | x9 | x9 | x9 | x9 | x9 | x3 A,3 x3 | x6 || x3 | x9 | x9 | x9 | x9 | x9 | x9 | x9 | x8 |] %18

